2 Export/Icons/Brands/WordPress.svg

<svg xmlns="http://www.w3.org/2000/svg" xmlns:xlink="http://www.w3.org/1999/xlink" width="24" height="24" viewBox="0 0 24 24">
  <defs>
    <path id="wordpress-a" d="M19.10175,8.11875 C19.73175,9.2715 20.09025,10.59375 20.09025,12 C20.09025,14.98425 18.47325,17.592 16.068,18.99375 L18.53925,11.8485 C19.0005,10.6935 19.15425,9.77025 19.15425,8.9505 C19.15425,8.64675 19.13475,8.3655 19.10175,8.118 L19.10175,8.11875 Z M13.116,8.19675 C13.60125,8.17425 14.04,8.118 14.04,8.118 C14.4765,8.06175 14.4255,7.4205 13.98975,7.44375 C13.98975,7.44375 12.6735,7.545 11.82975,7.545 C11.03175,7.545 9.69225,7.4325 9.69225,7.4325 C9.2535,7.41 9.1965,8.07375 9.636,8.09625 C9.636,8.09625 10.041,8.142 10.47975,8.16375 L11.73975,11.6175 L9.96225,16.9275 L7.0155,8.175 C7.50225,8.1525 7.941,8.1 7.941,8.1 C8.37975,8.04375 8.328,7.4025 7.89225,7.428 C7.89225,7.428 6.58275,7.5315 5.73675,7.5315 C5.58675,7.5315 5.40825,7.5255 5.21925,7.52025 C6.68325,5.3625 9.17625,3.91125 12,3.91125 C14.10675,3.91125 16.02375,4.71525 17.4645,6.036 C17.43,6.03375 17.39625,6.02925 17.35875,6.02925 C16.56375,6.02925 15.99975,6.7215 15.99975,7.46475 C15.99975,8.13225 16.3845,8.697 16.79475,9.363 C17.103,9.903 17.46225,10.59525 17.46225,11.59575 C17.46225,12.282 17.19675,13.09125 16.8465,14.205 L16.04025,16.89375 L13.11525,8.18625 L13.116,8.19675 Z M12,20.088 C11.20575,20.088 10.43925,19.97325 9.714,19.76025 L12.14175,12.70575 L14.628,19.521 C14.646,19.56075 14.6655,19.59675 14.6865,19.63275 C13.8465,19.9275 12.94275,20.0895 12,20.0895 L12,20.088 Z M3.90825,12 C3.90825,10.827 4.16025,9.7125 4.6095,8.7075 L8.4675,19.28175 C5.7705,17.97 3.909,15.20325 3.90825,12 L3.90825,12 Z M12,3 C7.03875,3 3,7.03875 3,12 C3,16.96125 7.03875,21 12,21 C16.96125,21 21,16.96125 21,12 C21,7.03875 16.96125,3 12,3 L12,3 Z"/>
  </defs>
  <g fill="none" fill-rule="evenodd">
    <polygon points="0 0 24 0 24 24 0 24"/>
    <mask id="wordpress-b" fill="#fff">
      <use xlink:href="#wordpress-a"/>
    </mask>
    <use fill="#000" xlink:href="#wordpress-a"/>
    <g fill="#000" mask="url(#wordpress-b)">
      <rect width="24" height="24"/>
    </g>
  </g>
</svg>

<svg xmlns="http://www.w3.org/2000/svg" xmlns:xlink="http://www.w3.org/1999/xlink" width="24" height="24" viewBox="0 0 24 24">
  <defs>
    <path id="wordpress-a" d="M19.102 8.119A8.068 8.068 0 0 1 20.09 12a8.087 8.087 0 0 1-4.022 6.994l2.471-7.146c.461-1.155.615-2.078.615-2.898 0-.303-.02-.584-.052-.832zm-5.986.078c.485-.023.924-.079.924-.079.437-.056.386-.698-.05-.674 0 0-1.316.101-2.16.101-.798 0-2.138-.112-2.138-.112-.438-.023-.495.64-.056.663 0 0 .405.046.844.068l1.26 3.454-1.778 5.31-2.946-8.753c.486-.023.925-.075.925-.075.439-.056.387-.697-.049-.672 0 0-1.31.104-2.155.104-.15 0-.329-.006-.518-.012C6.683 5.363 9.176 3.911 12 3.911c2.107 0 4.024.804 5.465 2.125-.035-.002-.069-.007-.106-.007-.795 0-1.36.692-1.36 1.436 0 .667.385 1.232.796 1.898.308.54.667 1.232.667 2.233 0 .686-.265 1.495-.616 2.609l-.806 2.689-2.925-8.708.001.01zM12 20.088c-.794 0-1.56-.115-2.286-.328l2.428-7.054 2.486 6.815a.99.99 0 0 0 .059.112A8.098 8.098 0 0 1 12 20.09v-.002zM3.908 12a8.05 8.05 0 0 1 .701-3.293l3.858 10.575A8.096 8.096 0 0 1 3.908 12zM12 3c-4.961 0-9 4.039-9 9s4.039 9 9 9 9-4.039 9-9-4.039-9-9-9z"/>
  </defs>
  <g fill="none" fill-rule="evenodd">
    <polygon points="0 0 24 0 24 24 0 24"/>
    <mask id="wordpress-b" fill="#fff">
      <use xlink:href="#wordpress-a"/>
    </mask>
    <use fill="#000" xlink:href="#wordpress-a"/>
    <g fill="#000" mask="url(#wordpress-b)">
      <rect width="24" height="24"/>
    </g>
  </g>
</svg>
